dist/svg/lock-o.svg

<svg width="16" height="16" viewBox="0 0 16 16" fill="rgb(34, 34, 34)" xmlns="http://www.w3.org/2000/svg"><title>lock-o</title><path d="M12.5 7.49999V14.5H3.5V7.49999H12.5ZM13.11 5.99999H2.79C2.771 5.99799 2.749 5.99699 2.726 5.99699C2.323 5.99699 1.996 6.32399 1.996 6.72699C1.996 6.75299 1.997 6.77799 2 6.80299V6.79999V15.3C2.003 15.69 2.32 16.005 2.71 16.005C2.738 16.005 2.766 16.003 2.793 16H2.79H13.21C13.607 15.977 13.93 15.685 13.999 15.305L14 15.3V6.79999C13.963 6.34999 13.589 5.99999 13.133 5.99999C13.125 5.99999 13.118 5.99999 13.11 5.99999Z" fill="rgb(34, 34, 34)" fill-opacity="1.00"/><path d="M9 10H7V12H9V10Z" fill="rgb(34, 34, 34)" fill-opacity="1.00"/><path d="M6 6V3C5.999 2.981 5.998 2.96 5.998 2.938C5.998 2.419 6.419 1.998 6.938 1.998C6.96 1.998 6.981 1.999 7.003 2H7H9C9.019 1.999 9.04 1.998 9.062 1.998C9.581 1.998 10.002 2.419 10.002 2.938C10.002 2.96 10.001 2.981 10 3.003V3V6.11H12V3C12 1.343 10.657 0 9 0H7C5.343 0 4 1.343 4 3V6H6Z" fill="rgb(34, 34, 34)" fill-opacity="1.00"/></svg>

<!-- Generated by Trend Micro Style Portal -->
<svg version="1.1" xmlns="http://www.w3.org/2000/svg" width="16" height="16" viewBox="0 0 16 16">
  <title>lock-o</title>
  <path fill="rgb(34,34,34)" d="M12.5 7.5v7h-9v-7h9zM13.11 6h-10.32c-0.019-0.002-0.041-0.003-0.064-0.003-0.403 0-0.73 0.327-0.73 0.73 0 0.026 0.001 0.051 0.004 0.076l-0-0.003v8.5c0.003 0.39 0.32 0.705 0.71 0.705 0.028 0 0.056-0.002 0.083-0.005l-0.003 0h10.42c0.397-0.023 0.72-0.315 0.789-0.695l0.001-0.005v-8.5c-0.037-0.45-0.411-0.8-0.867-0.8-0.008 0-0.016 0-0.024 0l0.001-0z"></path>
  <path fill="rgb(34,34,34)" d="M9 10h-2v2h2v-2z"></path>
  <path fill="rgb(34,34,34)" d="M6 6v-3c-0.001-0.019-0.002-0.040-0.002-0.062 0-0.519 0.421-0.94 0.94-0.94 0.022 0 0.043 0.001 0.065 0.002l-0.003-0h2c0.019-0.001 0.040-0.002 0.062-0.002 0.519 0 0.94 0.421 0.94 0.94 0 0.022-0.001 0.043-0.002 0.065l0-0.003v3.11h2v-3.11c0-1.657-1.343-3-3-3v0h-2c-1.657 0-3 1.343-3 3v0 3z"></path>
</svg>
